packages/match-logos/mono/svg/marks-and-spencer.svg

<svg fill="none" height="44" viewBox="0 0 74 44" width="74" xmlns="http://www.w3.org/2000/svg" xmlns:xlink="http://www.w3.org/1999/xlink"><clipPath id="a"><path d="m0 0h73.7v44h-73.7z"/></clipPath><g clip-path="url(#a)"><path d="m24.5986 38.1968c.3204 0 1.3754.067 1.776 1.032l.0534.134-.6009.3484-.0801-.1742c-.187-.4289-.6143-.6567-1.1752-.6567-.681 0-1.1217.3351-1.1217.8577 0 .5227.4407.6836 1.2419.9114l.0267.0134c.828.2413 1.8428.5361 1.8562 1.6485 0 .9918-.8279 1.6887-2.0031 1.6887-.9614 0-1.7092-.4557-2.1098-1.2598l-.0668-.1474.6143-.3619.0801.1742c.2804.5897.8012.898 1.509.898.7745 0 1.2686-.3753 1.2686-.9516 0-.5495-.4674-.7237-1.3087-.965-.8546-.2546-1.8161-.5361-1.8161-1.6216 0-1.2331 1.1618-1.5681 1.8562-1.5681zm9.3208 4.8114c.2537 0 .4674.2145.4807.4691 0 .2681-.227.4825-.4807.4825-.2671 0-.4807-.2278-.4807-.4825 0-.2546.227-.4691.4807-.4691zm9.855-4.6372c.9481 0 1.736.4825 1.736 1.4609 0 .5495-.2804.9381-.7478 1.1928.4941.2412.908.6433.9214 1.2732 0 .9382-.6944 1.6217-1.9096 1.6217s-1.9096-.6567-1.9096-1.6217c0-.6299.414-1.0454.9081-1.2732-.4674-.2547-.7345-.6433-.7345-1.1928 0-.965.7745-1.4609 1.736-1.4609zm5.3682 0c.9481 0 1.736.4825 1.736 1.4609 0 .5495-.2805.9381-.7479 1.1928.5075.2412.9081.6433.9215 1.2732 0 .9382-.6944 1.6217-1.9096 1.6217s-1.9096-.6567-1.9096-1.6217c0-.6299.414-1.0454.9081-1.2732-.4674-.2547-.7345-.6433-.7345-1.1928 0-.965.7745-1.4609 1.736-1.4609zm7.1175.0938v3.4712l.6944.067v.6166h-.6944v1.2732h-.7078v-1.2732h-2.7375v-.4959l2.6307-3.6589zm-35.4673-.2278v.7103h-2.8043v1.7423h2.6173v.6969h-2.6173v1.796h2.9645v.6969h-3.699v-5.6424zm11.2037 0v.7103h-1.7093v4.9321h-.7344v-4.9321h-1.7093v-.7103zm7.6917.2278v5.4146h-.7345v-4.7043h-.8412l.0133-.7103zm4.0729 2.8681c-.6277 0-1.2019.3217-1.2019.9784 0 .6969.5208 1.032 1.2019 1.032.681 0 1.2018-.3351 1.2018-1.032 0-.6567-.5742-.9784-1.2018-.9784zm5.3681 0c-.6276 0-1.2018.3217-1.2018.9784 0 .6969.5208 1.032 1.2018 1.032.6811 0 1.2152-.3351 1.2019-1.032 0-.6567-.5743-.9784-1.2019-.9784zm6.4365-1.8629-1.7627 2.4392h1.7627zm-11.7913-.5093c-.6944 0-1.0683.3351-1.0683.9114 0 .5361.4807.8711 1.0683.8711.5342 0 1.0683-.2948 1.0683-.8711s-.3873-.9114-1.0683-.9114zm5.3682 0c-.6811 0-1.0683.3351-1.0683.9114 0 .5361.4807.8711 1.0683.8711.5341 0 1.0683-.2948 1.0683-.8711s-.3873-.9114-1.0683-.9114zm-9.815-38.531824c3.472 0 6.0492 2.546454 6.0492 5.763024 0 3.09595-2.4303 5.1733-4.8473 6.7682l5.5417 6.0713 3.2717-5.3342 1.963 1.233-3.6189 5.9105 4.9676 5.2939-1.7894 1.5815-4.4735-4.798c-1.6158 2.5464-3.8191 4.4093-7.438 4.4093-4.6604 0-8.0923-3.2433-8.0923-7.2238 0-3.3238 2.0431-5.3744 5.9691-7.6126-2.2301-2.2382-3.4719-4.10111-3.4719-6.2991 0-3.20317 2.6974-5.763024 5.969-5.763024zm25.1049-.428876c4.0595 0 7.7585 1.84953 9.0671 6.11148l-2.23.81755c-.8814-2.8279-3.3918-4.65063-6.7837-4.65063-3.6989 0-6.1159 1.84953-6.1159 4.98569 0 6.72801 15.33 3.16291 15.33 12.63841 0 4.5166-3.6189 7.693-9.0138 7.693-5.0076 0-8.0122-2.399-10.082-6.2187l2.0832-1.2732c1.3888 2.9351 3.926 5.2135 7.7852 5.2135 4.4601 0 6.7836-2.0506 6.7836-5.4548 0-6.7682-15.33-3.4444-15.33-12.63842 0-5.45477 4.8875-7.22388 8.5063-7.22388zm-61.52028.348462 9.62798 18.629338 9.628-18.629338h2.5372v26.978938h-2.4704v-22.03346l-8.8402 17.23546h-1.7359l-8.85351-17.19525v21.99325h-2.470429v-26.978938zm35.46728 13.831238c-3.4986 1.93-5.0477 3.4846-5.0477 5.8703 0 2.7474 2.4705 5.0258 5.6219 5.0258 2.8444 0 4.3133-1.3134 5.889-3.8598zm.9615-11.59304c-2.1499 0-3.5387 1.7021-3.5387 3.59183 0 1.50107 1.0015 2.7877 3.1915 5.14651 2.5773-1.51446 4.0061-3.09594 4.0061-5.14651 0-2.01035-1.3487-3.59183-3.6589-3.59183z" fill="#1f304c"/></g></svg>

<svg width="74" height="44" viewBox="0 0 74 44" fill="none" xmlns="http://www.w3.org/2000/svg">
<g clip-path="url(#clip0)">
<path d="M24.5986 38.1968C24.919 38.1968 25.974 38.2638 26.3746 39.2288L26.428 39.3628L25.8271 39.7112L25.747 39.537C25.56 39.1081 25.1327 38.8803 24.5718 38.8803C23.8908 38.8803 23.4501 39.2154 23.4501 39.738C23.4501 40.2607 23.8908 40.4216 24.692 40.6494L24.7187 40.6628C25.5467 40.9041 26.5615 41.1989 26.5749 42.3113C26.5749 43.3031 25.747 44 24.5718 44C23.6104 44 22.8626 43.5443 22.462 42.7402L22.3952 42.5928L23.0095 42.2309L23.0896 42.4051C23.37 42.9948 23.8908 43.3031 24.5986 43.3031C25.3731 43.3031 25.8672 42.9278 25.8672 42.3515C25.8672 41.802 25.3998 41.6278 24.5585 41.3865C23.7039 41.1319 22.7424 40.8504 22.7424 39.7649C22.7424 38.5318 23.9042 38.1968 24.5986 38.1968ZM33.9194 43.0082C34.1731 43.0082 34.3868 43.2227 34.4001 43.4773C34.4001 43.7454 34.1731 43.9598 33.9194 43.9598C33.6523 43.9598 33.4387 43.732 33.4387 43.4773C33.4387 43.2227 33.6657 43.0082 33.9194 43.0082ZM43.7744 38.371C44.7225 38.371 45.5104 38.8535 45.5104 39.8319C45.5104 40.3814 45.23 40.77 44.7626 41.0247C45.2567 41.2659 45.6706 41.668 45.684 42.2979C45.684 43.2361 44.9896 43.9196 43.7744 43.9196C42.5592 43.9196 41.8648 43.2629 41.8648 42.2979C41.8648 41.668 42.2788 41.2525 42.7729 41.0247C42.3055 40.77 42.0384 40.3814 42.0384 39.8319C42.0384 38.8669 42.8129 38.371 43.7744 38.371ZM49.1426 38.371C50.0907 38.371 50.8786 38.8535 50.8786 39.8319C50.8786 40.3814 50.5981 40.77 50.1307 41.0247C50.6382 41.2659 51.0388 41.668 51.0522 42.2979C51.0522 43.2361 50.3578 43.9196 49.1426 43.9196C47.9274 43.9196 47.233 43.2629 47.233 42.2979C47.233 41.668 47.647 41.2525 48.1411 41.0247C47.6737 40.77 47.4066 40.3814 47.4066 39.8319C47.4066 38.8669 48.1811 38.371 49.1426 38.371ZM56.2601 38.4648V41.936L56.9545 42.003V42.6196H56.2601V43.8928H55.5523V42.6196H52.8148V42.1237L55.4455 38.4648H56.2601ZM20.7928 38.237V38.9473H17.9885V40.6896H20.6058V41.3865H17.9885V43.1825H20.953V43.8794H17.254V38.237H20.7928ZM31.9965 38.237V38.9473H30.2872V43.8794H29.5528V38.9473H27.8435V38.237H31.9965ZM39.6882 38.4648V43.8794H38.9537V39.1751H38.1125L38.1258 38.4648H39.6882ZM43.7611 41.3329C43.1334 41.3329 42.5592 41.6546 42.5592 42.3113C42.5592 43.0082 43.08 43.3433 43.7611 43.3433C44.4421 43.3433 44.9629 43.0082 44.9629 42.3113C44.9629 41.6546 44.3887 41.3329 43.7611 41.3329ZM49.1292 41.3329C48.5016 41.3329 47.9274 41.6546 47.9274 42.3113C47.9274 43.0082 48.4482 43.3433 49.1292 43.3433C49.8103 43.3433 50.3444 43.0082 50.3311 42.3113C50.3311 41.6546 49.7568 41.3329 49.1292 41.3329ZM55.5657 39.47L53.803 41.9092H55.5657V39.47ZM43.7744 38.9607C43.08 38.9607 42.7061 39.2958 42.7061 39.8721C42.7061 40.4082 43.1868 40.7432 43.7744 40.7432C44.3086 40.7432 44.8427 40.4484 44.8427 39.8721C44.8427 39.2958 44.4554 38.9607 43.7744 38.9607ZM49.1426 38.9607C48.4615 38.9607 48.0743 39.2958 48.0743 39.8721C48.0743 40.4082 48.555 40.7432 49.1426 40.7432C49.6767 40.7432 50.2109 40.4484 50.2109 39.8721C50.2109 39.2958 49.8236 38.9607 49.1426 38.9607ZM39.3276 0.428876C42.7996 0.428876 45.3768 2.97533 45.3768 6.1919C45.3768 9.28785 42.9465 11.3652 40.5295 12.9601L46.0712 19.0314L49.3429 13.6972L51.3059 14.9302L47.687 20.8407L52.6546 26.1346L50.8652 27.7161L46.3917 22.9181C44.7759 25.4645 42.5726 27.3274 38.9537 27.3274C34.2933 27.3274 30.8614 24.0841 30.8614 20.1036C30.8614 16.7798 32.9045 14.7292 36.8305 12.491C34.6004 10.2528 33.3586 8.38989 33.3586 6.1919C33.3586 2.98873 36.056 0.428876 39.3276 0.428876ZM64.4325 0C68.492 0 72.191 1.84953 73.4996 6.11148L71.2696 6.92903C70.3882 4.10113 67.8778 2.2784 64.4859 2.2784C60.787 2.2784 58.37 4.12793 58.37 7.26409C58.37 13.9921 73.7 10.427 73.7 19.9025C73.7 24.4191 70.0811 27.5955 64.6862 27.5955C59.6786 27.5955 56.674 25.1965 54.6042 21.3768L56.6874 20.1036C58.0762 23.0387 60.6134 25.3171 64.4726 25.3171C68.9327 25.3171 71.2562 23.2665 71.2562 19.8623C71.2562 13.0941 55.9262 16.4179 55.9262 7.22388C55.9262 1.76911 60.8137 0 64.4325 0ZM2.91222 0.348462L12.5402 18.9778L22.1682 0.348462H24.7054V27.3274H22.235V5.29394L13.3948 22.5294H11.6589L2.80539 5.33415V27.3274H0.334961V0.348462H2.91222ZM38.3795 14.1797C34.8809 16.1097 33.3318 17.6643 33.3318 20.05C33.3318 22.7974 35.8023 25.0758 38.9537 25.0758C41.7981 25.0758 43.267 23.7624 44.8427 21.216L38.3795 14.1797ZM39.341 2.58666C37.1911 2.58666 35.8023 4.28876 35.8023 6.17849C35.8023 7.67956 36.8038 8.96619 38.9938 11.325C41.5711 9.81054 42.9999 8.22906 42.9999 6.17849C42.9999 4.16814 41.6512 2.58666 39.341 2.58666Z" fill="#1F304C"/>
</g>
<defs>
<clipPath id="clip0">
<rect width="73.7" height="44" fill="white"/>
</clipPath>
</defs>
</svg>
